icon/pk/reverse-lens-one.svg

<svg viewBox="0 0 48 48" fill="none" xmlns="http://www.w3.org/2000/svg" height="1em" width="1em">
  <path d="M15 12L18 6H30L33 12H15Z" stroke="black" stroke-width="4" stroke-linejoin="round"/>
  <path d="M41 12H7C5.34315 12 4 13.2536 4 14.8V39.2C4 40.7464 5.34315 42 7 42H41C42.6569 42 44 40.7464 44 39.2V14.8C44 13.2536 42.6569 12 41 12Z" fill="#2F88FF" stroke="black" stroke-width="4" stroke-linejoin="round"/>
  <path d="M32 19V27" stroke="white" stroke-width="4" stroke-linecap="round" stroke-linejoin="round"/>
  <path d="M16 27V35" stroke="white" stroke-width="4" stroke-linecap="round" stroke-linejoin="round"/>
  <path d="M16 27C16 31.4183 19.5817 35 24 35C25.0609 35 26.0736 34.7935 27 34.4185" stroke="white" stroke-width="4" stroke-linecap="round"/>
  <path d="M32 27C32 22.5817 28.4183 19 24 19C22.9391 19 21.9264 19.2065 21 19.5815" stroke="white" stroke-width="4" stroke-linecap="round"/>
</svg>

<svg width="48" height="48" fill="none" xmlns="http://www.w3.org/2000/svg"><path d="m15 12 3-6h12l3 6H15Z" stroke="#000" stroke-width="4" stroke-linejoin="round"/><path d="M41 12H7c-1.657 0-3 1.254-3 2.8v24.4C4 40.746 5.343 42 7 42h34c1.657 0 3-1.254 3-2.8V14.8c0-1.546-1.343-2.8-3-2.8Z" fill="#2F88FF" stroke="#000" stroke-width="4" stroke-linejoin="round"/><path d="M32 19v8M16 27v8" stroke="#fff" stroke-width="4" stroke-linecap="round" stroke-linejoin="round"/><path d="M16 27a8 8 0 0 0 11 7.419M32 27a8 8 0 0 0-11-7.419" stroke="#fff" stroke-width="4" stroke-linecap="round"/></svg>
